**kern	**kern	**dynam
*part1	*part1	*part1
*staff2	*staff1	*
*I"Piano	*	*
*clefF4	*clefG2	*
*k[b-]	*k[b-]	*
=1	=1	=1
(4CC 4C	12r	.
.	(12AL 12f 12a	.
.	12AJ) 12d 12f	.
4BBB-) 4BB-	12r	.
.	(12dL 12g	.
.	12dJ) 12g#X	.
=	=	=
12r	2c#X 2e 2a	.
(12GG#XL	.	<
12AAJ	.	.
12AAL	.	.
12BB-	.	.
12AAJ)	.	[[
=	=	=
12r	2A 2e 2gn	.
(12GG#XL	.	<
12AAJ	.	.
12AAL	.	.
12BBn	.	.
12AAJ)	.	[[
=	=	=
12r	4.A 4.d 4.f#X	.
(12GG#XL	.	<
12AAJ	.	.
12AAL	.	.
12C	.	.
.	(8f#^ 8a 8dd	f <
12AAJ)	.	[[
=	=	=
12r	4.f#X^ 4.cc 4.ee	.
(12GG#XL	.	<
12AAJ	.	.
12AAL	.	.
12D	.	.
.	8f#^ 8cc 8ff#X	.
12AAJ)	.	[[
=	=	=
*	*^	*
12r	4.bbn)	4.bn 4.dd	.
(12FF#XL	.	.	<
12GGJ	.	.	.
12GGL	.	.	.
12E-X	.	.	.
.	(8gg	8b 8dd	[ <
12DJ)	.	.	[[
=	=	=	=
12r	4.aa	4.bn 4.ff	.
(12FF#XL	.	.	<
12GGJ	.	.	.
12GGL	.	.	.
12En	.	.	.
.	8bbn	8b 8ff	.
12DJ)	.	.	[[
*	*v	*v	*
=	=	=
*-	*-	*-
!!!system-decoration: {(s1,s2)}
